X:1
T:The Black Ball Line
M:4/4
L:1/4
K:Eb
 B| G G G B3/4 A/4| GG/2-F/2 E B,/2B,/2| E F Ge/2-d/2| c2- F| F3/4 F/4|\
 F F F3/2 F/2| F G A c| B B3/4 B/4 B B| G3||
